icons/solid/user-group.svg

<svg width="24" height="24" viewBox="0 0 24 24" fill="none" xmlns="http://www.w3.org/2000/svg">
<path fill-rule="evenodd" clip-rule="evenodd" d="M12 5C9.79086 5 8 6.79086 8 9C8 10.0648 8.41606 11.0324 9.09447 11.7492C7.2491 12.7725 6 14.7404 6 17C6 17.4097 6.0412 17.8107 6.12 18.1989C6.21462 18.665 6.62442 19 7.10002 19H16.9C17.3756 19 17.7854 18.665 17.88 18.1989C17.9588 17.8107 18 17.4097 18 17C18 14.7404 16.7509 12.7725 14.9055 11.7492C15.5839 11.0324 16 10.0648 16 9C16 6.79086 14.2091 5 12 5ZM16.5838 10.7786C16.8502 10.2428 17 9.63891 17 9C17 8.36109 16.8502 7.75717 16.5838 7.22143C17.1301 6.48059 18.0089 6 19 6C20.6569 6 22 7.34315 22 9C22 9.67533 21.7769 10.2985 21.4003 10.7999C22.3717 11.5297 23 12.6915 23 14V15C23 15.5523 22.5523 16 22 16H18.917C18.6098 14.1684 17.4727 12.6182 15.9055 11.7492C16.163 11.4772 16.3827 11.169 16.5562 10.8331C16.5706 10.8219 16.5851 10.8109 16.5997 10.7999L16.5838 10.7786ZM8.09447 11.7492C7.837 11.4772 7.61731 11.169 7.44381 10.8331C7.42938 10.8219 7.41487 10.8109 7.40028 10.7999L7.41618 10.7786C7.14979 10.2428 7 9.63891 7 9C7 8.36109 7.14979 7.75717 7.41617 7.22144C6.86992 6.48059 5.99108 6 5 6C3.34315 6 2 7.34315 2 9C2 9.67533 2.22314 10.2985 2.59972 10.7999C1.62832 11.5297 1 12.6915 1 14C1 14.4657 1.08001 14.9149 1.22787 15.3332C1.3691 15.7328 1.74689 16 2.17071 16H5.08296C5.39024 14.1684 6.52735 12.6182 8.09447 11.7492Z" fill="currentColor"/>
</svg>

<svg width="24" height="24" fill="none" xmlns="http://www.w3.org/2000/svg"><path fill-rule="evenodd" clip-rule="evenodd" d="M12 5a4 4 0 00-2.906 6.75 5.998 5.998 0 00-2.974 6.449A1 1 0 007.1 19h9.8a1 1 0 00.98-.801 5.998 5.998 0 00-2.974-6.45A4 4 0 0012 5zm4.584 5.779C16.85 10.243 17 9.639 17 9s-.15-1.243-.416-1.779A3 3 0 1121.4 10.8C22.37 11.53 23 12.693 23 14v1a1 1 0 01-1 1h-3.083a6.006 6.006 0 00-3.012-4.25 4.01 4.01 0 00.651-.917 3.56 3.56 0 01.044-.033l-.016-.021zm-8.49.97a4.01 4.01 0 01-.65-.916A3.902 3.902 0 007.4 10.8l.016-.021A3.984 3.984 0 017 9c0-.639.15-1.243.416-1.779A3 3 0 102.6 10.8a3.994 3.994 0 00-1.372 4.534A1 1 0 002.17 16h2.912a6.006 6.006 0 013.011-4.25z" fill="currentColor"/></svg>
